static/img/menus/ico-cam-ai.svg

<svg width="20" height="20" viewBox="0 0 20 20" fill="none" xmlns="http://www.w3.org/2000/svg">
<path d="M7 2.5H4C3.17157 2.5 2.5 3.17157 2.5 4V7M13 2.5H16C16.8284 2.5 17.5 3.17157 17.5 4V7M17.5 13V16C17.5 16.8284 16.8284 17.5 16 17.5H13M7 17.5H4C3.17157 17.5 2.5 16.8284 2.5 16V13" stroke="currentColor"/>
<path d="M9.54916 5.94018C9.73061 5.56177 10.2694 5.56177 10.4508 5.94018L11.5445 8.22086C11.5937 8.32351 11.6765 8.40629 11.7791 8.45551L14.0598 9.54916C14.4382 9.73061 14.4382 10.2694 14.0598 10.4508L11.7791 11.5445C11.6765 11.5937 11.5937 11.6765 11.5445 11.7791L10.4508 14.0598C10.2694 14.4382 9.73061 14.4382 9.54916 14.0598L8.45551 11.7791C8.40629 11.6765 8.32351 11.5937 8.22086 11.5445L5.94018 10.4508C5.56177 10.2694 5.56177 9.73061 5.94018 9.54916L8.22086 8.45551C8.32351 8.40629 8.40629 8.32351 8.45551 8.22086L9.54916 5.94018Z" stroke="currentColor"/>
</svg>

<svg xmlns="http://www.w3.org/2000/svg" width="20" height="20" fill="none" viewBox="0 0 20 20"><path stroke="currentColor" d="M7 2.5H4A1.5 1.5 0 0 0 2.5 4v3M13 2.5h3A1.5 1.5 0 0 1 17.5 4v3m0 6v3a1.5 1.5 0 0 1-1.5 1.5h-3m-6 0H4A1.5 1.5 0 0 1 2.5 16v-3M9.55 5.94a.5.5 0 0 1 .9 0l1.095 2.28a.5.5 0 0 0 .234.236l2.28 1.093a.5.5 0 0 1 0 .902l-2.28 1.093a.5.5 0 0 0-.235.235l-1.093 2.28a.5.5 0 0 1-.902 0l-1.093-2.28a.5.5 0 0 0-.235-.235l-2.28-1.093a.5.5 0 0 1 0-.902l2.28-1.093a.5.5 0 0 0 .235-.235z"/></svg>
